X:28
T:Valse ecossaise
C:Pennec: Tablatures 2
M:3/4
L:1/4
K:C
C>DE|G2c|AGE|GED|C>DE|G2G|AGE|D2G,|C>DE|G2c|
AGE|G3|GAc|E2D|E/D/C2|C3::c>Bc|A2G|AGE|G3|
c>Bc|A2G|AGE|D3|1 c>Bc|A2G|AGE|G3|GAc|E2D|
E/D/C2|C3:|2 C>DE|G2c|AGE|G3|GAc|E2D|E/D/C2|C3||
